src/assets/images/social/icon-twitter.svg

<svg width="24" height="24" viewBox="0 0 24 24" fill="none" xmlns="http://www.w3.org/2000/svg">
<path d="M19.9525 7.91998C19.9647 8.0963 19.9647 8.27261 19.9647 8.45055C19.9647 13.8724 15.8371 20.1255 8.28966 20.1255V20.1223C6.06013 20.1255 3.8769 19.4869 2 18.2828C2.32419 18.3218 2.65001 18.3413 2.97664 18.3421C4.82429 18.3437 6.61913 17.7238 8.07272 16.5822C6.31688 16.5489 4.77717 15.404 4.23928 13.7327C4.85436 13.8513 5.48812 13.8269 6.09181 13.662C4.17753 13.2753 2.80033 11.5934 2.80033 9.64007C2.80033 9.6222 2.80033 9.60513 2.80033 9.58807C3.37071 9.90576 4.00934 10.0821 4.6626 10.1016C2.85964 8.89662 2.30388 6.49808 3.39265 4.6228C5.47593 7.18628 8.54966 8.74468 11.8493 8.90962C11.5186 7.48447 11.9703 5.99108 13.0364 4.98925C14.689 3.43572 17.2882 3.51535 18.8418 5.16719C19.7607 4.986 20.6415 4.64881 21.4475 4.17105C21.1412 5.12088 20.5001 5.9277 19.6437 6.4404C20.457 6.34452 21.2517 6.12677 22 5.79445C21.4491 6.61996 20.7552 7.33903 19.9525 7.91998Z" fill="white"/>
</svg>

<svg width="24" height="24" fill="none" xmlns="http://www.w3.org/2000/svg"><path d="M19.953 7.92c.012.176.012.353.012.53 0 5.422-4.128 11.675-11.675 11.675v-.003A11.617 11.617 0 0 1 2 18.282a8.24 8.24 0 0 0 6.073-1.7 4.108 4.108 0 0 1-3.834-2.85 4.09 4.09 0 0 0 1.853-.07A4.104 4.104 0 0 1 2.8 9.64v-.052c.57.318 1.21.494 1.863.514a4.108 4.108 0 0 1-1.27-5.48 11.646 11.646 0 0 0 8.456 4.288 4.108 4.108 0 0 1 6.992-3.742 8.234 8.234 0 0 0 2.607-.997 4.118 4.118 0 0 1-1.804 2.27A8.16 8.16 0 0 0 22 5.793a8.337 8.337 0 0 1-2.047 2.126Z" fill="#fff"/></svg>
